X:1
T:Title
L:1/8
M:6/8
I:linebreak $
K:G
V:1 treble nm="Voice"
V:1
"Em" EGB e2 e | gfd e2 B |"D" cBA G2 A |"Em" Bee Bee |"Em" EGB e2 e | gfd e2 B |"D" cBA G2 F | %7
"Em" E6 ::"D" ABc BAG | FGA"Em" Bee |"D" ABc BAG | FBB FBB |"D" ABc BAG |"D" FGA"Em" B2 e | %14
 g2 f e2 d | e3 e3 |] %16
